X: 40206
T: Tinker's Daughter, The
R: reel
M: 4/4
K: Dmajor
|:A2 FA DAFA|f3d efdB|A2 FA DAFA|B3d BAFB|
A2 FA DAFA|f3d efde|faaf bfaf|1 e2 de fedB:|2 e2 de fdde||
faaf bfaf|defd e2 de|f2 df efdB|ABdf ed (3Bcd|
faaf bfaf|defd e2 de|f2 df efdB|AFEF D2 de|
fa a2 bfaf|defd e2 de|f2 df efdB|ABdf ed (3Bcd|
A2 FA DAFA|f3d efde|fa a2 bfaf|e2 de fd d2||

